client/public/img/game/shared/residues/oak_tree_residue.svg

<?xml version="1.0" encoding="UTF-8" standalone="no"?>
<!-- Created with Inkscape (http://www.inkscape.org/) -->

<svg
   width="236.92624"
   height="217.72469"
   viewBox="0 0 62.686737 57.60633"
   version="1.1"
   id="svg1062"
   xmlns="http://www.w3.org/2000/svg"
   xmlns:svg="http://www.w3.org/2000/svg"
   xmlns:rdf="http://www.w3.org/1999/02/22-rdf-syntax-ns#"
   xmlns:cc="http://creativecommons.org/ns#"
   xmlns:dc="http://purl.org/dc/elements/1.1/">
  <defs
     id="defs1059" />
  <g
     id="layer1"
     transform="translate(8.3393664,10.640721)">
    <path
       style="fill:#6d4a2c;fill-opacity:1;stroke:#312114;stroke-width:0.79375;stroke-linejoin:round;stroke-dasharray:none;stroke-opacity:1"
       id="path1620"
       d="M 14.949099,9.1020719 12.335946,11.271303 11.489719,14.560379 8.1080634,14.24648 5.1839617,15.973835 3.0147308,13.360683 -0.27434587,12.514455 0.03955379,9.1327998 -1.6878013,6.2086981 0.92535078,4.0394672 1.7715784,0.75039054 5.1532339,1.0642902 8.0773355,-0.66306492 10.246566,1.9500872 l 3.289077,0.8462276 -0.3139,3.3816555 z"
       transform="matrix(1.6576083,0,0,1.6576083,11.550334,5.4728147)" />
    <path
       style="fill:#5f4316;fill-opacity:0;fill-rule:nonzero;stroke:#312114;stroke-width:0.30749;stroke-linejoin:miter;stroke-dasharray:none;stroke-opacity:1"
       id="path1620-8"
       d="M 14.949099,9.1020719 12.335946,11.271303 11.489719,14.560379 8.1080634,14.24648 5.1839617,15.973835 3.0147308,13.360683 -0.27434587,12.514455 0.03955379,9.1327998 -1.6878013,6.2086981 0.92535078,4.0394672 1.7715784,0.75039054 5.1532339,1.0642902 8.0773355,-0.66306492 10.246566,1.9500872 l 3.289077,0.8462276 -0.3139,3.3816555 z"
       transform="matrix(1.4263092,0,0,1.4263092,13.083996,7.2434982)" />
    <path
       style="fill:#5f4316;fill-opacity:0;fill-rule:nonzero;stroke:#312114;stroke-width:0.30749;stroke-linejoin:miter;stroke-dasharray:none;stroke-opacity:1"
       id="path1620-8-5"
       d="M 14.949099,9.1020719 12.335946,11.271303 11.489719,14.560379 8.1080634,14.24648 5.1839617,15.973835 3.0147308,13.360683 -0.27434587,12.514455 0.03955379,9.1327998 -1.6878013,6.2086981 0.92535078,4.0394672 1.7715784,0.75039054 5.1532339,1.0642902 8.0773355,-0.66306492 10.246566,1.9500872 l 3.289077,0.8462276 -0.3139,3.3816555 z"
       transform="matrix(1.2807363,0,0,1.2807363,14.04924,8.357915)" />
    <path
       style="fill:#5f4316;fill-opacity:0;fill-rule:nonzero;stroke:#312114;stroke-width:0.30749;stroke-linejoin:miter;stroke-dasharray:none;stroke-opacity:1"
       id="path1620-8-5-7"
       d="M 14.949099,9.1020719 12.335946,11.271303 11.489719,14.560379 8.1080634,14.24648 5.1839617,15.973835 3.0147308,13.360683 -0.27434587,12.514455 0.03955379,9.1327998 -1.6878013,6.2086981 0.92535078,4.0394672 1.7715784,0.75039054 5.1532339,1.0642902 8.0773355,-0.66306492 10.246566,1.9500872 l 3.289077,0.8462276 -0.3139,3.3816555 z"
       transform="matrix(1.1429956,0,0,1.1429956,14.96255,9.4123729)" />
    <path
       style="fill:#5f4316;fill-opacity:0;fill-rule:nonzero;stroke:#312114;stroke-width:0.30749;stroke-linejoin:miter;stroke-dasharray:none;stroke-opacity:1"
       id="path1620-8-5-7-3"
       d="M 14.949099,9.1020719 12.335946,11.271303 11.489719,14.560379 8.1080634,14.24648 5.1839617,15.973835 3.0147308,13.360683 -0.27434587,12.514455 0.03955379,9.1327998 -1.6878013,6.2086981 0.92535078,4.0394672 1.7715784,0.75039054 5.1532339,1.0642902 8.0773355,-0.66306492 10.246566,1.9500872 l 3.289077,0.8462276 -0.3139,3.3816555 z"
       transform="matrix(1.0048732,0,0,1.0048732,15.87839,10.469753)" />
    <path
       style="fill:#5f4316;fill-opacity:0;fill-rule:nonzero;stroke:#312114;stroke-width:0.30749;stroke-linejoin:miter;stroke-dasharray:none;stroke-opacity:1"
       id="path1620-8-5-7-3-2"
       d="M 14.949099,9.1020719 12.335946,11.271303 11.489719,14.560379 8.1080634,14.24648 5.1839617,15.973835 3.0147308,13.360683 -0.27434587,12.514455 0.03955379,9.1327998 -1.6878013,6.2086981 0.92535078,4.0394672 1.7715784,0.75039054 5.1532339,1.0642902 8.0773355,-0.66306492 10.246566,1.9500872 l 3.289077,0.8462276 -0.3139,3.3816555 z"
       transform="matrix(0.84836116,0,0,0.84836116,16.916166,11.667913)" />
    <path
       style="fill:#5f4316;fill-opacity:0;fill-rule:nonzero;stroke:#312114;stroke-width:0.30749;stroke-linejoin:miter;stroke-dasharray:none;stroke-opacity:1"
       id="path1620-8-5-7-3-2-7"
       d="M 14.949099,9.1020719 12.335946,11.271303 11.489719,14.560379 8.1080634,14.24648 5.1839617,15.973835 3.0147308,13.360683 -0.27434587,12.514455 0.03955379,9.1327998 -1.6878013,6.2086981 0.92535078,4.0394672 1.7715784,0.75039054 5.1532339,1.0642902 8.0773355,-0.66306492 10.246566,1.9500872 l 3.289077,0.8462276 -0.3139,3.3816555 z"
       transform="matrix(0.68314932,0,0,0.68314932,18.011628,12.932673)" />
    <path
       style="fill:#5f4316;fill-opacity:0;fill-rule:nonzero;stroke:#312114;stroke-width:0.30749;stroke-linejoin:miter;stroke-dasharray:none;stroke-opacity:1"
       id="path1620-8-5-7-3-2-7-0"
       d="M 14.949099,9.1020719 12.335946,11.271303 11.489719,14.560379 8.1080634,14.24648 5.1839617,15.973835 3.0147308,13.360683 -0.27434587,12.514455 0.03955379,9.1327998 -1.6878013,6.2086981 0.92535078,4.0394672 1.7715784,0.75039054 5.1532339,1.0642902 8.0773355,-0.66306492 10.246566,1.9500872 l 3.289077,0.8462276 -0.3139,3.3816555 z"
       transform="matrix(0.56047966,0,0,0.56047966,18.825007,13.871757)" />
    <path
       style="fill:#5f4316;fill-opacity:0;fill-rule:nonzero;stroke:#312114;stroke-width:0.30749;stroke-linejoin:miter;stroke-dasharray:none;stroke-opacity:1"
       id="path1620-8-5-7-3-2-7-0-0"
       d="M 14.949099,9.1020719 12.335946,11.271303 11.489719,14.560379 8.1080634,14.24648 5.1839617,15.973835 3.0147308,13.360683 -0.27434587,12.514455 0.03955379,9.1327998 -1.6878013,6.2086981 0.92535078,4.0394672 1.7715784,0.75039054 5.1532339,1.0642902 8.0773355,-0.66306492 10.246566,1.9500872 l 3.289077,0.8462276 -0.3139,3.3816555 z"
       transform="matrix(0.44855257,0,0,0.44855257,19.567157,14.728601)" />
    <path
       style="fill:#5f4316;fill-opacity:0;fill-rule:nonzero;stroke:#312114;stroke-width:0.30749;stroke-linejoin:miter;stroke-dasharray:none;stroke-opacity:1"
       id="path1620-8-5-7-3-2-7-0-0-8"
       d="M 14.949099,9.1020719 12.335946,11.271303 11.489719,14.560379 8.1080634,14.24648 5.1839617,15.973835 3.0147308,13.360683 -0.27434587,12.514455 0.03955379,9.1327998 -1.6878013,6.2086981 0.92535078,4.0394672 1.7715784,0.75039054 5.1532339,1.0642902 8.0773355,-0.66306492 10.246566,1.9500872 l 3.289077,0.8462276 -0.3139,3.3816555 z"
       transform="matrix(0.33713147,0,0,0.33713147,20.305951,15.581573)" />
    <path
       style="fill:#312114;fill-opacity:1;fill-rule:nonzero;stroke:#4b2e00;stroke-width:0;stroke-linejoin:miter;stroke-dasharray:none;stroke-opacity:1"
       id="path1620-8-5-7-3-2-7-0-0-8-4"
       d="M 14.949099,9.1020719 12.335946,11.271303 11.489719,14.560379 8.1080634,14.24648 5.1839617,15.973835 3.0147308,13.360683 -0.27434587,12.514455 0.03955379,9.1327998 -1.6878013,6.2086981 0.92535078,4.0394672 1.7715784,0.75039054 5.1532339,1.0642902 8.0773355,-0.66306492 10.246566,1.9500872 l 3.289077,0.8462276 -0.3139,3.3816555 z"
       transform="matrix(0.23693543,0,0,0.23693543,20.970315,16.348612)" />
    <g
       style="fill:none"
       id="g866"
       transform="matrix(0.16432292,0.16432292,-0.16432292,0.16432292,5.0307932,-10.702831)">
      <path
         d="M 27.733135,63.42463 24.25227,33.901355 45.481205,3.0789049 40.775615,46.306376 52.555585,95.079569 42.78886,116.90606 Z"
         fill="#6d4a2c"
         stroke="#1b1917"
         stroke-width="6.15955"
         stroke-miterlimit="16"
         stroke-linejoin="round"
         id="path4-3"
         style="stroke:#312114;stroke-opacity:1" />
      <path
         d="M 72.864444,65.398945 C 67.529931,57.617538 50.345095,46.337997 46.550729,58.350883 c -2.720247,12.30069 17.801374,11.125411 26.312513,7.05408 l 0.0035,0.0012 c 0,-0.0023 -0.0023,-0.0061 -0.0023,-0.0072 z"
         fill="#5f926a"
         id="path46-67"
         style="fill:#588a42;fill-opacity:0.898039;stroke-width:1.20417" />
      <path
         d="m 64.265402,27.659975 -0.0047,0.0084 C 52.662057,31.732526 32.677499,49.506205 46.549644,58.3509 61.145502,65.942043 66.54504,39.748742 64.266733,27.672033 l 0.0047,-0.0084 c -0.0012,0.0012 -0.0035,0.0023 -0.0047,0.0023 0,-0.0023 -0.0012,-0.0035 -0.0012,-0.0061 z"
         fill="#587e60"
         id="path48-5"
         style="fill:#609648;fill-opacity:0.898039;stroke-width:1.20417" />
      <path
         d="m 17.293011,47.300542 c 7.658128,-5.25 18.758965,-22.162579 6.936408,-25.896833 -12.105813,-2.677149 -10.94916,17.519351 -6.942325,25.89565 l -0.0012,0.0035 c 0.0023,0 0.006,-0.0023 0.007,-0.0023 z"
         fill="#5f926a"
         id="path46-6-3"
         style="fill:#588a42;fill-opacity:0.898039;stroke-width:1.1851" />
      <path
         d="m 8.85e-5,6.7323374 0.00831,0.00462 C 4.008108,18.151853 21.50021,37.8198 30.20478,24.167429 37.675653,9.8028094 11.89733,4.4888152 0.01195,6.7310272 l -0.00831,-0.00462 c 0.00115,0.00115 0.00231,0.00346 0.00231,0.00462 -0.00231,0 -0.00346,0.00115 -0.00595,0.00115 z"
         fill="#587e60"
         id="path48-7-5"
         style="fill:#609648;fill-opacity:0.898039;stroke-width:1.1851" />
      <path
         d="m 40.891081,37.242829 0.0012,0.0047 c -3.484925,6.88308 -4.657792,23.404416 5.657204,21.10323 C 56.634489,55.18618 47.35749,41.464561 40.897069,37.245116 l -0.0012,-0.0035 c 0.0012,-0.0012 0,0 0,0 -0.0012,-0.0012 -0.0035,0.0023 -0.0047,0.0012 z"
         fill="#77a37a"
         id="path50-6"
         style="fill:#588a42;fill-opacity:0.898039;stroke-width:1.20417" />
    </g>
    <g
       style="fill:none"
       id="g866-8"
       transform="matrix(0.12549929,-0.12549929,0.12549929,0.12549929,-4.0726072,33.551667)">
      <path
         d="M 27.733135,63.42463 24.25227,33.901355 45.481205,3.0789049 40.775615,46.306376 52.555585,95.079569 42.78886,116.90606 Z"
         fill="#6d4a2c"
         stroke="#1b1917"
         stroke-width="6.15955"
         stroke-miterlimit="16"
         stroke-linejoin="round"
         id="path4-3-7"
         style="stroke:#312114;stroke-opacity:1" />
      <path
         d="M 72.864444,65.398945 C 67.529931,57.617538 50.345095,46.337997 46.550729,58.350883 c -2.720247,12.30069 17.801374,11.125411 26.312513,7.05408 l 0.0035,0.0012 c 0,-0.0023 -0.0023,-0.0061 -0.0023,-0.0072 z"
         fill="#5f926a"
         id="path46-67-9"
         style="fill:#588a42;fill-opacity:0.898039;stroke-width:1.20417" />
      <path
         d="m 64.265402,27.659975 -0.0047,0.0084 C 52.662057,31.732526 32.677499,49.506205 46.549644,58.3509 61.145502,65.942043 66.54504,39.748742 64.266733,27.672033 l 0.0047,-0.0084 c -0.0012,0.0012 -0.0035,0.0023 -0.0047,0.0023 0,-0.0023 -0.0012,-0.0035 -0.0012,-0.0061 z"
         fill="#587e60"
         id="path48-5-2"
         style="fill:#609648;fill-opacity:0.898039;stroke-width:1.20417" />
      <path
         d="m 17.293011,47.300542 c 7.658128,-5.25 18.758965,-22.162579 6.936408,-25.896833 -12.105813,-2.677149 -10.94916,17.519351 -6.942325,25.89565 l -0.0012,0.0035 c 0.0023,0 0.006,-0.0023 0.007,-0.0023 z"
         fill="#5f926a"
         id="path46-6-3-0"
         style="fill:#588a42;fill-opacity:0.898039;stroke-width:1.1851" />
      <path
         d="m 8.85e-5,6.7323374 0.00831,0.00462 C 4.008108,18.151853 21.50021,37.8198 30.20478,24.167429 37.675653,9.8028094 11.89733,4.4888152 0.01195,6.7310272 l -0.00831,-0.00462 c 0.00115,0.00115 0.00231,0.00346 0.00231,0.00462 -0.00231,0 -0.00346,0.00115 -0.00595,0.00115 z"
         fill="#587e60"
         id="path48-7-5-2"
         style="fill:#609648;fill-opacity:0.898039;stroke-width:1.1851" />
      <path
         d="m 40.891081,37.242829 0.0012,0.0047 c -3.484925,6.88308 -4.657792,23.404416 5.657204,21.10323 C 56.634489,55.18618 47.35749,41.464561 40.897069,37.245116 l -0.0012,-0.0035 c 0.0012,-0.0012 0,0 0,0 -0.0012,-0.0012 -0.0035,0.0023 -0.0047,0.0012 z"
         fill="#77a37a"
         id="path50-6-3"
         style="fill:#588a42;fill-opacity:0.898039;stroke-width:1.20417" />
    </g>
    <g
       style="fill:none"
       id="g866-7"
       transform="matrix(-0.20269344,-0.05431154,0.05431154,-0.20269344,51.191084,17.591244)">
      <path
         d="M 27.733135,63.42463 24.25227,33.901355 45.481205,3.0789049 40.775615,46.306376 52.555585,95.079569 42.78886,116.90606 Z"
         fill="#6d4a2c"
         stroke="#1b1917"
         stroke-width="6.15955"
         stroke-miterlimit="16"
         stroke-linejoin="round"
         id="path4-3-5"
         style="stroke:#312114;stroke-opacity:1" />
      <path
         d="M 72.864444,65.398945 C 67.529931,57.617538 50.345095,46.337997 46.550729,58.350883 c -2.720247,12.30069 17.801374,11.125411 26.312513,7.05408 l 0.0035,0.0012 c 0,-0.0023 -0.0023,-0.0061 -0.0023,-0.0072 z"
         fill="#5f926a"
         id="path46-67-92"
         style="fill:#588a42;fill-opacity:0.898039;stroke-width:1.20417" />
      <path
         d="m 64.265402,27.659975 -0.0047,0.0084 C 52.662057,31.732526 32.677499,49.506205 46.549644,58.3509 61.145502,65.942043 66.54504,39.748742 64.266733,27.672033 l 0.0047,-0.0084 c -0.0012,0.0012 -0.0035,0.0023 -0.0047,0.0023 0,-0.0023 -0.0012,-0.0035 -0.0012,-0.0061 z"
         fill="#587e60"
         id="path48-5-28"
         style="fill:#609648;fill-opacity:0.898039;stroke-width:1.20417" />
      <path
         d="m 17.293011,47.300542 c 7.658128,-5.25 18.758965,-22.162579 6.936408,-25.896833 -12.105813,-2.677149 -10.94916,17.519351 -6.942325,25.89565 l -0.0012,0.0035 c 0.0023,0 0.006,-0.0023 0.007,-0.0023 z"
         fill="#5f926a"
         id="path46-6-3-9"
         style="fill:#588a42;fill-opacity:0.898039;stroke-width:1.1851" />
      <path
         d="m 8.85e-5,6.7323374 0.00831,0.00462 C 4.008108,18.151853 21.50021,37.8198 30.20478,24.167429 37.675653,9.8028094 11.89733,4.4888152 0.01195,6.7310272 l -0.00831,-0.00462 c 0.00115,0.00115 0.00231,0.00346 0.00231,0.00462 -0.00231,0 -0.00346,0.00115 -0.00595,0.00115 z"
         fill="#587e60"
         id="path48-7-5-7"
         style="fill:#609648;fill-opacity:0.898039;stroke-width:1.1851" />
      <path
         d="m 40.891081,37.242829 0.0012,0.0047 c -3.484925,6.88308 -4.657792,23.404416 5.657204,21.10323 C 56.634489,55.18618 47.35749,41.464561 40.897069,37.245116 l -0.0012,-0.0035 c 0.0012,-0.0012 0,0 0,0 -0.0012,-0.0012 -0.0035,0.0023 -0.0047,0.0012 z"
         fill="#77a37a"
         id="path50-6-36"
         style="fill:#588a42;fill-opacity:0.898039;stroke-width:1.20417" />
    </g>
  </g>
  <metadata
     id="metadata6004">
    <rdf:RDF>
      <cc:Work
         rdf:about="">
        <dc:creator>
          <cc:Agent>
            <dc:title>Radians</dc:title>
          </cc:Agent>
        </dc:creator>
      </cc:Work>
    </rdf:RDF>
  </metadata>
</svg>

<svg xmlns="http://www.w3.org/2000/svg" width="236.926" height="217.725" viewBox="0 0 62.687 57.606"><path d="m14.95 9.102-2.614 2.17-.846 3.288-3.382-.314-2.924 1.728-2.17-2.613-3.288-.847.314-3.381-1.728-2.924 2.613-2.17L1.772.75l3.381.314L8.077-.663l2.17 2.613 3.289.846-.314 3.382z" style="fill:#6d4a2c;fill-opacity:1;stroke:#312114;stroke-width:.79375;stroke-linejoin:round;stroke-dasharray:none;stroke-opacity:1" transform="matrix(1.6576 0 0 1.6576 19.89 16.114)"/><path fill="none" d="m14.95 9.102-2.614 2.17-.846 3.288-3.382-.314-2.924 1.728-2.17-2.613-3.288-.847.314-3.381-1.728-2.924 2.613-2.17L1.772.75l3.381.314L8.077-.663l2.17 2.613 3.289.846-.314 3.382z" style="fill:#5f4316;fill-opacity:0;fill-rule:nonzero;stroke:#312114;stroke-width:.30749;stroke-linejoin:miter;stroke-dasharray:none;stroke-opacity:1" transform="matrix(1.4263 0 0 1.4263 21.423 17.884)"/><path fill="none" d="m14.95 9.102-2.614 2.17-.846 3.288-3.382-.314-2.924 1.728-2.17-2.613-3.288-.847.314-3.381-1.728-2.924 2.613-2.17L1.772.75l3.381.314L8.077-.663l2.17 2.613 3.289.846-.314 3.382z" style="fill:#5f4316;fill-opacity:0;fill-rule:nonzero;stroke:#312114;stroke-width:.30749;stroke-linejoin:miter;stroke-dasharray:none;stroke-opacity:1" transform="matrix(1.28074 0 0 1.28074 22.389 18.999)"/><path fill="none" d="m14.95 9.102-2.614 2.17-.846 3.288-3.382-.314-2.924 1.728-2.17-2.613-3.288-.847.314-3.381-1.728-2.924 2.613-2.17L1.772.75l3.381.314L8.077-.663l2.17 2.613 3.289.846-.314 3.382z" style="fill:#5f4316;fill-opacity:0;fill-rule:nonzero;stroke:#312114;stroke-width:.30749;stroke-linejoin:miter;stroke-dasharray:none;stroke-opacity:1" transform="matrix(1.143 0 0 1.143 23.302 20.053)"/><path fill="none" d="m14.95 9.102-2.614 2.17-.846 3.288-3.382-.314-2.924 1.728-2.17-2.613-3.288-.847.314-3.381-1.728-2.924 2.613-2.17L1.772.75l3.381.314L8.077-.663l2.17 2.613 3.289.846-.314 3.382z" style="fill:#5f4316;fill-opacity:0;fill-rule:nonzero;stroke:#312114;stroke-width:.30749;stroke-linejoin:miter;stroke-dasharray:none;stroke-opacity:1" transform="matrix(1.00487 0 0 1.00487 24.218 21.11)"/><path fill="none" d="m14.95 9.102-2.614 2.17-.846 3.288-3.382-.314-2.924 1.728-2.17-2.613-3.288-.847.314-3.381-1.728-2.924 2.613-2.17L1.772.75l3.381.314L8.077-.663l2.17 2.613 3.289.846-.314 3.382z" style="fill:#5f4316;fill-opacity:0;fill-rule:nonzero;stroke:#312114;stroke-width:.30749;stroke-linejoin:miter;stroke-dasharray:none;stroke-opacity:1" transform="translate(25.256 22.309)scale(.84836)"/><path fill="none" d="m14.95 9.102-2.614 2.17-.846 3.288-3.382-.314-2.924 1.728-2.17-2.613-3.288-.847.314-3.381-1.728-2.924 2.613-2.17L1.772.75l3.381.314L8.077-.663l2.17 2.613 3.289.846-.314 3.382z" style="fill:#5f4316;fill-opacity:0;fill-rule:nonzero;stroke:#312114;stroke-width:.30749;stroke-linejoin:miter;stroke-dasharray:none;stroke-opacity:1" transform="matrix(.68315 0 0 .68315 26.351 23.573)"/><path fill="none" d="m14.95 9.102-2.614 2.17-.846 3.288-3.382-.314-2.924 1.728-2.17-2.613-3.288-.847.314-3.381-1.728-2.924 2.613-2.17L1.772.75l3.381.314L8.077-.663l2.17 2.613 3.289.846-.314 3.382z" style="fill:#5f4316;fill-opacity:0;fill-rule:nonzero;stroke:#312114;stroke-width:.30749;stroke-linejoin:miter;stroke-dasharray:none;stroke-opacity:1" transform="matrix(.56048 0 0 .56048 27.164 24.512)"/><path fill="none" d="m14.95 9.102-2.614 2.17-.846 3.288-3.382-.314-2.924 1.728-2.17-2.613-3.288-.847.314-3.381-1.728-2.924 2.613-2.17L1.772.75l3.381.314L8.077-.663l2.17 2.613 3.289.846-.314 3.382z" style="fill:#5f4316;fill-opacity:0;fill-rule:nonzero;stroke:#312114;stroke-width:.30749;stroke-linejoin:miter;stroke-dasharray:none;stroke-opacity:1" transform="matrix(.44855 0 0 .44855 27.907 25.37)"/><path fill="none" d="m14.95 9.102-2.614 2.17-.846 3.288-3.382-.314-2.924 1.728-2.17-2.613-3.288-.847.314-3.381-1.728-2.924 2.613-2.17L1.772.75l3.381.314L8.077-.663l2.17 2.613 3.289.846-.314 3.382z" style="fill:#5f4316;fill-opacity:0;fill-rule:nonzero;stroke:#312114;stroke-width:.30749;stroke-linejoin:miter;stroke-dasharray:none;stroke-opacity:1" transform="translate(28.645 26.222)scale(.33713)"/><path d="m14.95 9.102-2.614 2.17-.846 3.288-3.382-.314-2.924 1.728-2.17-2.613-3.288-.847.314-3.381-1.728-2.924 2.613-2.17L1.772.75l3.381.314L8.077-.663l2.17 2.613 3.289.846-.314 3.382z" style="fill:#312114;fill-opacity:1;fill-rule:nonzero;stroke:#4b2e00;stroke-width:0;stroke-linejoin:miter;stroke-dasharray:none;stroke-opacity:1" transform="matrix(.23694 0 0 .23694 29.31 26.99)"/><g style="fill:none"><path fill="#6d4a2c" stroke="#1b1917" stroke-linejoin="round" stroke-miterlimit="16" stroke-width="6.16" d="M27.733 63.425 24.253 33.9 45.48 3.08l-4.705 43.227 11.78 48.774-9.767 21.826Z" style="stroke:#312114;stroke-opacity:1" transform="rotate(45.001 6.76 16.108)scale(.23239)"/><path fill="#5f926a" d="M72.864 65.399c-5.334-7.781-22.519-19.061-26.313-7.048-2.72 12.3 17.801 11.125 26.312 7.054l.004.001z" style="fill:#588a42;fill-opacity:.898039;stroke-width:1.20417" transform="rotate(45.001 6.76 16.108)scale(.23239)"/><path fill="#587e60" d="m64.265 27.66-.004.008C52.662 31.733 32.677 49.506 46.55 58.351c14.596 7.591 19.995-18.602 17.717-30.679l.004-.008-.004.002z" style="fill:#609648;fill-opacity:.898039;stroke-width:1.20417" transform="rotate(45.001 6.76 16.108)scale(.23239)"/><path fill="#5f926a" d="M17.293 47.3c7.658-5.25 18.759-22.162 6.936-25.896-12.105-2.677-10.949 17.52-6.942 25.895l-.001.004z" style="fill:#588a42;fill-opacity:.898039;stroke-width:1.1851" transform="rotate(45.001 6.76 16.108)scale(.23239)"/><path fill="#587e60" d="m0 6.732.008.005c4 11.415 21.492 31.083 30.197 17.43C37.675 9.803 11.897 4.49.012 6.731l-.008-.005.002.005z" style="fill:#609648;fill-opacity:.898039;stroke-width:1.1851" transform="rotate(45.001 6.76 16.108)scale(.23239)"/><path fill="#77a37a" d="m40.891 37.243.001.005c-3.485 6.883-4.658 23.404 5.657 21.103 10.085-3.165.808-16.886-5.652-21.106l-.001-.003q0-.002 0 0c-.001-.002-.004.002-.005 0" style="fill:#588a42;fill-opacity:.898039;stroke-width:1.20417" transform="rotate(45.001 6.76 16.108)scale(.23239)"/></g><g style="fill:none"><path fill="#6d4a2c" stroke="#1b1917" stroke-linejoin="round" stroke-miterlimit="16" stroke-width="6.16" d="M27.733 63.425 24.253 33.9 45.48 3.08l-4.705 43.227 11.78 48.774-9.767 21.826Z" style="stroke:#312114;stroke-opacity:1" transform="matrix(.1255 -.1255 .1255 .1255 4.267 44.192)"/><path fill="#5f926a" d="M72.864 65.399c-5.334-7.781-22.519-19.061-26.313-7.048-2.72 12.3 17.801 11.125 26.312 7.054l.004.001z" style="fill:#588a42;fill-opacity:.898039;stroke-width:1.20417" transform="matrix(.1255 -.1255 .1255 .1255 4.267 44.192)"/><path fill="#587e60" d="m64.265 27.66-.004.008C52.662 31.733 32.677 49.506 46.55 58.351c14.596 7.591 19.995-18.602 17.717-30.679l.004-.008-.004.002z" style="fill:#609648;fill-opacity:.898039;stroke-width:1.20417" transform="matrix(.1255 -.1255 .1255 .1255 4.267 44.192)"/><path fill="#5f926a" d="M17.293 47.3c7.658-5.25 18.759-22.162 6.936-25.896-12.105-2.677-10.949 17.52-6.942 25.895l-.001.004z" style="fill:#588a42;fill-opacity:.898039;stroke-width:1.1851" transform="matrix(.1255 -.1255 .1255 .1255 4.267 44.192)"/><path fill="#587e60" d="m0 6.732.008.005c4 11.415 21.492 31.083 30.197 17.43C37.675 9.803 11.897 4.49.012 6.731l-.008-.005.002.005z" style="fill:#609648;fill-opacity:.898039;stroke-width:1.1851" transform="matrix(.1255 -.1255 .1255 .1255 4.267 44.192)"/><path fill="#77a37a" d="m40.891 37.243.001.005c-3.485 6.883-4.658 23.404 5.657 21.103 10.085-3.165.808-16.886-5.652-21.106l-.001-.003q0-.002 0 0c-.001-.002-.004.002-.005 0" style="fill:#588a42;fill-opacity:.898039;stroke-width:1.20417" transform="matrix(.1255 -.1255 .1255 .1255 4.267 44.192)"/></g><g style="fill:none"><path fill="#6d4a2c" stroke="#1b1917" stroke-linejoin="round" stroke-miterlimit="16" stroke-width="6.16" d="M27.733 63.425 24.253 33.9 45.48 3.08l-4.705 43.227 11.78 48.774-9.767 21.826Z" style="stroke:#312114;stroke-opacity:1" transform="matrix(-.2027 -.05431 .05431 -.2027 59.53 28.232)"/><path fill="#5f926a" d="M72.864 65.399c-5.334-7.781-22.519-19.061-26.313-7.048-2.72 12.3 17.801 11.125 26.312 7.054l.004.001z" style="fill:#588a42;fill-opacity:.898039;stroke-width:1.20417" transform="matrix(-.2027 -.05431 .05431 -.2027 59.53 28.232)"/><path fill="#587e60" d="m64.265 27.66-.004.008C52.662 31.733 32.677 49.506 46.55 58.351c14.596 7.591 19.995-18.602 17.717-30.679l.004-.008-.004.002z" style="fill:#609648;fill-opacity:.898039;stroke-width:1.20417" transform="matrix(-.2027 -.05431 .05431 -.2027 59.53 28.232)"/><path fill="#5f926a" d="M17.293 47.3c7.658-5.25 18.759-22.162 6.936-25.896-12.105-2.677-10.949 17.52-6.942 25.895l-.001.004z" style="fill:#588a42;fill-opacity:.898039;stroke-width:1.1851" transform="matrix(-.2027 -.05431 .05431 -.2027 59.53 28.232)"/><path fill="#587e60" d="m0 6.732.008.005c4 11.415 21.492 31.083 30.197 17.43C37.675 9.803 11.897 4.49.012 6.731l-.008-.005.002.005z" style="fill:#609648;fill-opacity:.898039;stroke-width:1.1851" transform="matrix(-.2027 -.05431 .05431 -.2027 59.53 28.232)"/><path fill="#77a37a" d="m40.891 37.243.001.005c-3.485 6.883-4.658 23.404 5.657 21.103 10.085-3.165.808-16.886-5.652-21.106l-.001-.003q0-.002 0 0c-.001-.002-.004.002-.005 0" style="fill:#588a42;fill-opacity:.898039;stroke-width:1.20417" transform="matrix(-.2027 -.05431 .05431 -.2027 59.53 28.232)"/></g></svg>
